static/images/clients/logo-sharpend-cell.svg

<svg width="256" height="166" viewBox="0 0 256 166" fill="none" xmlns="http://www.w3.org/2000/svg">
<rect opacity="0.1" width="256" height="166" fill="#95BCD1"/>
<path d="M102.113 77.5601C101.928 76.3774 100.945 74.6351 98.4268 74.6351C96.5176 74.6351 95.1926 75.9227 95.1926 77.3725C95.1926 78.5807 95.9336 79.4931 97.3937 79.8142L100.097 80.377C103.413 81.0478 105.187 83.1685 105.187 85.8518C105.187 88.8055 102.829 91.6224 98.5335 91.6224C93.7607 91.6224 91.5596 88.5098 91.2707 85.7692L94.2411 84.9107C94.4264 86.8978 95.8331 88.7228 98.5367 88.7228C100.791 88.7228 101.956 87.5687 101.956 86.0935C101.956 84.8599 101.055 83.8647 99.4378 83.515L96.7877 82.9523C93.924 82.3609 92.0149 80.4565 92.0149 77.611C92.0149 74.4157 94.9037 71.7864 98.4048 71.7864C102.832 71.7864 104.556 74.5238 104.98 76.6444L102.113 77.5601Z" fill="black"/>
<path d="M111.178 91.2218H108.104V71.7864H111.178V79.4105C112.054 78.2564 113.511 77.7731 114.865 77.7731C118.045 77.7731 119.584 80.0813 119.584 82.9523V91.2218H116.51V83.4928C116.51 81.8808 115.794 80.5932 113.86 80.5932C112.164 80.5932 111.235 81.8808 111.181 83.5468V91.2218H111.178Z" fill="black"/>
<path d="M126.42 83.7344L129.733 83.2257C130.474 83.1176 130.687 82.7425 130.687 82.2846C130.687 81.1846 129.946 80.2975 128.247 80.2975C126.63 80.2975 125.729 81.3435 125.597 82.6598L122.79 82.0144C123.029 79.7602 125.045 77.7445 128.225 77.7445C132.204 77.7445 133.714 80.0273 133.714 82.6312V89.1266C133.714 90.3061 133.846 91.0851 133.874 91.2218H131.011C130.985 91.1423 130.879 90.605 130.879 89.559C130.269 90.5509 128.998 91.6256 126.903 91.6256C124.2 91.6256 122.529 89.7466 122.529 87.68C122.523 85.3432 124.219 84.0555 126.42 83.7344ZM130.69 85.801V85.2096L127.324 85.7183C126.37 85.8805 125.6 86.4178 125.6 87.4892C125.6 88.3763 126.263 89.1806 127.481 89.1806C129.205 89.1838 130.69 88.3508 130.69 85.801Z" fill="black"/>
<path d="M144.977 81.2355C144.632 81.1814 144.286 81.156 143.969 81.156C141.583 81.156 140.496 82.5518 140.496 84.9935V91.2218H137.422V78.1483H140.418V80.2435C141.027 78.8224 142.459 77.9894 144.155 77.9894C144.525 77.9894 144.845 78.0434 144.977 78.0689V81.2355Z" fill="black"/>
<path d="M147.549 96.3215V78.1483H150.519V79.9192C151.157 78.7906 152.639 77.8527 154.63 77.8527C158.448 77.8527 160.596 80.8063 160.596 84.6724C160.596 88.5925 158.237 91.543 154.523 91.543C152.667 91.543 151.26 90.7386 150.598 89.7434V96.3215H147.549ZM154.042 80.6187C152.027 80.6187 150.57 82.2306 150.57 84.6724C150.57 87.1682 152.027 88.7801 154.042 88.7801C156.083 88.7801 157.515 87.1682 157.515 84.6724C157.515 82.2306 156.112 80.6187 154.042 80.6187Z" fill="black"/>
<path d="M163.824 91.2218V72.1902H175.435V75.1979H167.004V80.2435H174.641V83.1685H167.004V88.2141H175.435V91.2218H163.824V91.2218Z" fill="black"/>
<path d="M181.797 91.2219H178.723V78.1484H181.718V79.8938C182.566 78.39 184.105 77.7732 185.537 77.7732C188.692 77.7732 190.203 80.0814 190.203 82.9524V91.2219H187.129V83.4929C187.129 81.8809 186.413 80.5933 184.478 80.5933C182.729 80.5933 181.8 81.9636 181.8 83.6804V91.2219H181.797Z" fill="black"/>
<path d="M205.868 88.8341C205.868 90.0136 205.975 91.0087 206 91.2218H203.058C203.004 90.9261 202.926 90.0677 202.926 89.5303C202.317 90.6304 200.963 91.5429 199.136 91.5429C195.424 91.5429 192.931 88.5893 192.931 84.6437C192.931 80.8857 195.45 77.7985 199.083 77.7985C201.337 77.7985 202.477 78.8445 202.873 79.6775V71.7864H205.868V88.8341ZM199.478 88.8055C201.494 88.8055 202.898 87.114 202.898 84.6182C202.898 82.1225 201.519 80.5646 199.503 80.5646C197.487 80.5646 196.005 82.1479 196.005 84.6437C196.005 87.1427 197.384 88.8055 199.478 88.8055Z" fill="black"/>
<path opacity="0.5" d="M50.2058 71.0361L55.1575 72.3492L74.0949 77.3725L77.932 73.675L49 66L50.2058 71.0361Z" fill="#111111"/>
<path opacity="0.7" d="M59.6917 91.2567L60.9163 96.3691L83.0564 75.0357L77.932 73.6749L74.0949 77.3725L59.6917 91.2567Z" fill="#111111"/>
<path d="M55.1575 72.3492L50.2057 71.0361L57.1514 100L60.9163 96.3692L59.6917 91.2568L55.1575 72.3492Z" fill="#111111"/>
</svg>

<svg xmlns="http://www.w3.org/2000/svg" fill="none" viewBox="0 0 256 166">
  <path fill="#95BCD1" d="M0 0h256v166H0z" opacity=".1"/>
  <path fill="#000" d="M102.11 77.56c-.18-1.18-1.17-2.92-3.68-2.92-1.91 0-3.24 1.28-3.24 2.73 0 1.21.74 2.12 2.2 2.44l2.7.57c3.32.67 5.1 2.79 5.1 5.47 0 2.96-2.36 5.77-6.66 5.77-4.77 0-6.97-3.11-7.26-5.85l2.97-.86a4.06 4.06 0 004.3 3.81c2.25 0 3.42-1.15 3.42-2.63 0-1.23-.9-2.23-2.52-2.58l-2.65-.56c-2.87-.59-4.78-2.5-4.78-5.34 0-3.2 2.9-5.82 6.4-5.82 4.42 0 6.15 2.73 6.57 4.85l-2.87.92zM111.18 91.22h-3.08V71.8h3.08v7.62a4.58 4.58 0 013.68-1.64c3.19 0 4.72 2.31 4.72 5.18v8.27h-3.07V83.5c0-1.6-.72-2.9-2.65-2.9-1.7 0-2.63 1.3-2.68 2.96v7.67zM126.42 83.73l3.31-.5c.74-.11.96-.49.96-.95 0-1.1-.74-1.98-2.44-1.98a2.5 2.5 0 00-2.65 2.36l-2.81-.65c.24-2.25 2.25-4.27 5.43-4.27 3.98 0 5.5 2.29 5.5 4.9v6.49c0 1.18.13 1.96.15 2.1h-2.86a7.4 7.4 0 01-.13-1.67 4.5 4.5 0 01-3.98 2.07c-2.7 0-4.37-1.88-4.37-3.95 0-2.34 1.69-3.62 3.89-3.95zm4.27 2.07v-.59l-3.37.5c-.95.17-1.72.7-1.72 1.78 0 .89.66 1.7 1.88 1.7 1.73 0 3.21-.84 3.21-3.39zM144.98 81.24a6.6 6.6 0 00-1.01-.08c-2.39 0-3.47 1.4-3.47 3.83v6.23h-3.08V78.15h3v2.1c.6-1.43 2.04-2.26 3.74-2.26.37 0 .69.05.82.08v3.17zM147.55 96.32V78.15h2.97v1.77c.64-1.13 2.12-2.07 4.11-2.07 3.82 0 5.97 2.96 5.97 6.82 0 3.92-2.36 6.87-6.08 6.87-1.85 0-3.26-.8-3.92-1.8v6.58h-3.05zm6.5-15.7c-2.02 0-3.48 1.61-3.48 4.05 0 2.5 1.46 4.11 3.47 4.11 2.04 0 3.47-1.61 3.47-4.1 0-2.45-1.4-4.06-3.47-4.06zM163.82 91.22V72.2h11.62v3H167v5.05h7.64v2.93H167v5.04h8.44v3.01h-11.62zM181.8 91.22h-3.08V78.15h3v1.74a4.27 4.27 0 013.82-2.12c3.15 0 4.66 2.31 4.66 5.18v8.27h-3.07V83.5c0-1.6-.72-2.9-2.65-2.9-1.75 0-2.68 1.37-2.68 3.09v7.54zM205.87 88.83c0 1.18.1 2.18.13 2.4h-2.94c-.06-.3-.13-1.16-.13-1.7a4.23 4.23 0 01-3.8 2.01c-3.7 0-6.2-2.95-6.2-6.9 0-3.75 2.52-6.84 6.15-6.84 2.26 0 3.4 1.04 3.8 1.88v-7.9h2.99v17.05zm-6.4-.02c2.02 0 3.43-1.7 3.43-4.2 0-2.49-1.38-4.05-3.4-4.05-2.01 0-3.5 1.59-3.5 4.08 0 2.5 1.38 4.17 3.48 4.17z"/>
  <path fill="#111" d="M50.2 71.04l4.96 1.3 18.93 5.03 3.84-3.7L49 66l1.2 5.04z" opacity=".5"/>
  <path fill="#111" d="M59.7 91.26l1.22 5.1 22.14-21.32-5.13-1.37-3.84 3.7-14.4 13.89z" opacity=".7"/>
  <path fill="#111" d="M55.16 72.35l-4.95-1.31L57.15 100l3.77-3.63-1.23-5.11-4.53-18.91z"/>
</svg>
